src/luts/Sven.CUBE
#Created by Online LUT generator
TITLE ""
#LUT size
LUT_3D_SIZE 5
#LUT data points
DOMAIN_MIN 0.000000 0.000000 0.000000
DOMAIN_MAX 0.903226 0.903226 0.903226
0.000000 0.000000 0.000000
0.000000 0.112903 0.225806
0.000000 0.225806 0.451613
0.000000 0.338710 0.677419
0.000000 0.451613 0.903226
0.225806 0.000000 0.112903
0.112903 0.000000 0.225806
0.000000 0.000000 0.451613
0.000000 0.112903 0.677419
0.000000 0.225806 0.903226
0.451613 0.000000 0.225806
0.451613 0.000000 0.451613
0.225806 0.000000 0.451613
0.112903 0.000000 0.677419
0.000000 0.000000 0.903226
0.677419 0.000000 0.338710
0.677419 0.000000 0.564516
0.564516 0.000000 0.677419
0.338710 0.000000 0.677419
0.225806 0.000000 0.903226
0.903226 0.000000 0.451613
0.903226 0.000000 0.677419
0.903226 0.000000 0.903226
0.677419 0.000000 0.903226
0.451613 0.000000 0.903226
0.112903 0.225806 0.000000
0.000000 0.225806 0.112903
0.000000 0.451613 0.451613
0.000000 0.564516 0.677419
0.000000 0.677419 0.903226
0.225806 0.112903 0.000000
0.225806 0.225806 0.225806
0.225806 0.338710 0.451613
0.225806 0.451613 0.677419
0.225806 0.564516 0.903226
0.451613 0.000000 0.000000
0.451613 0.225806 0.338710
0.338710 0.225806 0.451613
0.225806 0.225806 0.677419
0.225806 0.338710 0.903226
0.677419 0.000000 0.112903
0.677419 0.225806 0.451613
0.677419 0.225806 0.677419
0.451613 0.225806 0.677419
0.338710 0.225806 0.903226
0.903226 0.000000 0.225806
0.903226 0.225806 0.564516
0.903226 0.225806 0.790323
0.790323 0.225806 0.903226
0.564516 0.225806 0.903226
0.225806 0.451613 0.000000
0.000000 0.451613 0.000000
0.000000 0.451613 0.225806
0.000000 0.677419 0.564516
0.000000 0.903226 0.903226
0.451613 0.451613 0.000000
0.338710 0.451613 0.225806
0.225806 0.451613 0.338710
0.225806 0.677419 0.677419
0.225806 0.790323 0.903226
0.451613 0.225806 0.000000
0.451613 0.338710 0.225806
0.451613 0.451613 0.451613
0.451613 0.564516 0.677419
0.451613 0.677419 0.903226
0.677419 0.112903 0.000000
0.677419 0.225806 0.225806
0.677419 0.451613 0.564516
0.564516 0.451613 0.677419
0.451613 0.451613 0.903226
0.903226 0.000000 0.000000
0.903226 0.225806 0.338710
0.903226 0.451613 0.677419
0.903226 0.451613 0.903226
0.677419 0.451613 0.903226
0.338710 0.677419 0.000000
0.112903 0.677419 0.000000
0.000000 0.677419 0.112903
0.000000 0.677419 0.338710
0.000000 0.903226 0.677419
0.564516 0.677419 0.000000
0.451613 0.677419 0.225806
0.225806 0.677419 0.225806
0.225806 0.677419 0.451613
0.225806 0.903226 0.790323
0.677419 0.564516 0.000000
0.677419 0.677419 0.225806
0.564516 0.677419 0.451613
0.451613 0.677419 0.564516
0.451613 0.903226 0.903226
0.677419 0.338710 0.000000
0.677419 0.451613 0.225806
0.677419 0.564516 0.451613
0.677419 0.677419 0.677419
0.677419 0.790323 0.903226
0.903226 0.225806 0.000000
0.903226 0.338710 0.225806
0.903226 0.451613 0.451613
0.903226 0.677419 0.790323
0.790323 0.677419 0.903226
0.451613 0.903226 0.000000
0.225806 0.903226 0.000000
0.000000 0.903226 0.000000
0.000000 0.903226 0.225806
0.000000 0.903226 0.451613
0.677419 0.903226 0.000000
0.564516 0.903226 0.225806
0.338710 0.903226 0.225806
0.225806 0.903226 0.338710
0.225806 0.903226 0.564516
0.903226 0.903226 0.000000
0.790323 0.903226 0.225806
0.677419 0.903226 0.451613
0.451613 0.903226 0.451613
0.451613 0.903226 0.677419
0.903226 0.677419 0.000000
0.903226 0.790323 0.225806
0.903226 0.903226 0.451613
0.790323 0.903226 0.677419
0.677419 0.903226 0.790323
0.903226 0.451613 0.000000
0.903226 0.564516 0.225806
0.903226 0.677419 0.451613
0.903226 0.790323 0.677419
0.903226 0.903226 0.903226
