src/luts/Sven.CUBE
#Created by Online LUT generator
TITLE ""
#LUT size
LUT_3D_SIZE 8
#LUT data points
DOMAIN_MIN 0.000000 0.000000 0.000000
DOMAIN_MAX 0.903226 0.903226 0.903226
0.000000 0.000000 0.000000
0.000000 0.064516 0.129032
0.000000 0.129032 0.258065
0.000000 0.193548 0.387097
0.000000 0.258065 0.516129
0.000000 0.322581 0.645161
0.000000 0.387097 0.774194
0.000000 0.451613 0.903226
0.129032 0.000000 0.064516
0.064516 0.000000 0.129032
0.000000 0.000000 0.258065
0.000000 0.064516 0.387097
0.000000 0.129032 0.516129
0.000000 0.193548 0.645161
0.000000 0.258065 0.774194
0.000000 0.322581 0.903226
0.258065 0.000000 0.129032
0.258065 0.000000 0.258065
0.129032 0.000000 0.258065
0.064516 0.000000 0.387097
0.000000 0.000000 0.516129
0.000000 0.064516 0.645161
0.000000 0.129032 0.774194
0.000000 0.193548 0.903226
0.387097 0.000000 0.193548
0.387097 0.000000 0.322581
0.322581 0.000000 0.387097
0.193548 0.000000 0.387097
0.129032 0.000000 0.516129
0.064516 0.000000 0.645161
0.000000 0.000000 0.774194
0.000000 0.064516 0.903226
0.516129 0.000000 0.258065
0.516129 0.000000 0.387097
0.516129 0.000000 0.516129
0.387097 0.000000 0.516129
0.258065 0.000000 0.516129
0.193548 0.000000 0.645161
0.129032 0.000000 0.774194
0.064516 0.000000 0.903226
0.645161 0.000000 0.322581
0.645161 0.000000 0.451613
0.645161 0.000000 0.580645
0.580645 0.000000 0.645161
0.451613 0.000000 0.645161
0.322581 0.000000 0.645161
0.258065 0.000000 0.774194
0.193548 0.000000 0.903226
0.774194 0.000000 0.387097
0.774194 0.000000 0.516129
0.774194 0.000000 0.645161
0.774194 0.000000 0.774194
0.645161 0.000000 0.774194
0.516129 0.000000 0.774194
0.387097 0.000000 0.774194
0.322581 0.000000 0.903226
0.903226 0.000000 0.451613
0.903226 0.000000 0.580645
0.903226 0.000000 0.709677
0.903226 0.000000 0.838710
0.838710 0.000000 0.903226
0.709677 0.000000 0.903226
0.580645 0.000000 0.903226
0.451613 0.000000 0.903226
0.064516 0.129032 0.000000
0.000000 0.129032 0.064516
0.000000 0.258065 0.258065
0.000000 0.322581 0.387097
0.000000 0.387097 0.516129
0.000000 0.451613 0.645161
0.000000 0.516129 0.774194
0.000000 0.580645 0.903226
0.129032 0.064516 0.000000
0.129032 0.129032 0.129032
0.129032 0.193548 0.258065
0.129032 0.258065 0.387097
0.129032 0.322581 0.516129
0.129032 0.387097 0.645161
0.129032 0.451613 0.774194
0.129032 0.516129 0.903226
0.258065 0.000000 0.000000
0.258065 0.129032 0.193548
0.193548 0.129032 0.258065
0.129032 0.129032 0.387097
0.129032 0.193548 0.516129
0.129032 0.258065 0.645161
0.129032 0.322581 0.774194
0.129032 0.387097 0.903226
0.387097 0.000000 0.064516
0.387097 0.129032 0.258065
0.387097 0.129032 0.387097
0.258065 0.129032 0.387097
0.193548 0.129032 0.516129
0.129032 0.129032 0.645161
0.129032 0.193548 0.774194
0.129032 0.258065 0.903226
0.516129 0.000000 0.129032
0.516129 0.129032 0.322581
0.516129 0.129032 0.451613
0.451613 0.129032 0.516129
0.322581 0.129032 0.516129
0.258065 0.129032 0.645161
0.193548 0.129032 0.774194
0.129032 0.129032 0.903226
0.645161 0.000000 0.193548
0.645161 0.129032 0.387097
0.645161 0.129032 0.516129
0.645161 0.129032 0.645161
0.516129 0.129032 0.645161
0.387097 0.129032 0.645161
0.322581 0.129032 0.774194
0.258065 0.129032 0.903226
0.774194 0.000000 0.258065
0.774194 0.129032 0.451613
0.774194 0.129032 0.580645
0.774194 0.129032 0.709677
0.709677 0.129032 0.774194
0.580645 0.129032 0.774194
0.451613 0.129032 0.774194
0.387097 0.129032 0.903226
0.903226 0.000000 0.322581
0.903226 0.129032 0.516129
0.903226 0.129032 0.645161
0.903226 0.129032 0.774194
0.903226 0.129032 0.903226
0.774194 0.129032 0.903226
0.645161 0.129032 0.903226
0.516129 0.129032 0.903226
0.129032 0.258065 0.000000
0.000000 0.258065 0.000000
0.000000 0.258065 0.129032
0.000000 0.387097 0.322581
0.000000 0.516129 0.516129
0.000000 0.580645 0.645161
0.000000 0.645161 0.774194
0.000000 0.709677 0.903226
0.258065 0.258065 0.000000
0.193548 0.258065 0.129032
0.129032 0.258065 0.193548
0.129032 0.387097 0.387097
0.129032 0.451613 0.516129
0.129032 0.516129 0.645161
0.129032 0.580645 0.774194
0.129032 0.645161 0.903226
0.258065 0.129032 0.000000
0.258065 0.193548 0.129032
0.258065 0.258065 0.258065
0.258065 0.322581 0.387097
0.258065 0.387097 0.516129
0.258065 0.451613 0.645161
0.258065 0.516129 0.774194
0.258065 0.580645 0.903226
0.387097 0.064516 0.000000
0.387097 0.129032 0.129032
0.387097 0.258065 0.322581
0.322581 0.258065 0.387097
0.258065 0.258065 0.516129
0.258065 0.322581 0.645161
0.258065 0.387097 0.774194
0.258065 0.451613 0.903226
0.516129 0.000000 0.000000
0.516129 0.129032 0.193548
0.516129 0.258065 0.387097
0.516129 0.258065 0.516129
0.387097 0.258065 0.516129
0.322581 0.258065 0.645161
0.258065 0.258065 0.774194
0.258065 0.322581 0.903226
0.645161 0.000000 0.064516
0.645161 0.129032 0.258065
0.645161 0.258065 0.451613
0.645161 0.258065 0.580645
0.580645 0.258065 0.645161
0.451613 0.258065 0.645161
0.387097 0.258065 0.774194
0.322581 0.258065 0.903226
0.774194 0.000000 0.129032
0.774194 0.129032 0.322581
0.774194 0.258065 0.516129
0.774194 0.258065 0.645161
0.774194 0.258065 0.774194
0.645161 0.258065 0.774194
0.516129 0.258065 0.774194
0.451613 0.258065 0.903226
0.903226 0.000000 0.193548
0.903226 0.129032 0.387097
0.903226 0.258065 0.580645
0.903226 0.258065 0.709677
0.903226 0.258065 0.838710
0.838710 0.258065 0.903226
0.709677 0.258065 0.903226
0.580645 0.258065 0.903226
0.193548 0.387097 0.000000
0.064516 0.387097 0.000000
0.000000 0.387097 0.064516
0.000000 0.387097 0.193548
0.000000 0.516129 0.387097
0.000000 0.645161 0.580645
0.000000 0.774194 0.774194
0.000000 0.838710 0.903226
0.322581 0.387097 0.000000
0.258065 0.387097 0.129032
0.129032 0.387097 0.129032
0.129032 0.387097 0.258065
0.129032 0.516129 0.451613
0.129032 0.645161 0.645161
0.129032 0.709677 0.774194
0.129032 0.774194 0.903226
0.387097 0.322581 0.000000
0.387097 0.387097 0.129032
0.322581 0.387097 0.258065
0.258065 0.387097 0.322581
0.258065 0.516129 0.516129
0.258065 0.580645 0.645161
0.258065 0.645161 0.774194
0.258065 0.709677 0.903226
0.387097 0.193548 0.000000
0.387097 0.258065 0.129032
0.387097 0.322581 0.258065
0.387097 0.387097 0.387097
0.387097 0.451613 0.516129
0.387097 0.516129 0.645161
0.387097 0.580645 0.774194
0.387097 0.645161 0.903226
0.516129 0.129032 0.000000
0.516129 0.193548 0.129032
0.516129 0.258065 0.258065
0.516129 0.387097 0.451613
0.451613 0.387097 0.516129
0.387097 0.387097 0.645161
0.387097 0.451613 0.774194
0.387097 0.516129 0.903226
0.645161 0.064516 0.000000
0.645161 0.129032 0.129032
0.645161 0.258065 0.322581
0.645161 0.387097 0.516129
0.645161 0.387097 0.645161
0.516129 0.387097 0.645161
0.451613 0.387097 0.774194
0.387097 0.387097 0.903226
0.774194 0.000000 0.000000
0.774194 0.129032 0.193548
0.774194 0.258065 0.387097
0.774194 0.387097 0.580645
0.774194 0.387097 0.709677
0.709677 0.387097 0.774194
0.580645 0.387097 0.774194
0.516129 0.387097 0.903226
0.903226 0.000000 0.064516
0.903226 0.129032 0.258065
0.903226 0.258065 0.451613
0.903226 0.387097 0.645161
0.903226 0.387097 0.774194
0.903226 0.387097 0.903226
0.774194 0.387097 0.903226
0.645161 0.387097 0.903226
0.258065 0.516129 0.000000
0.129032 0.516129 0.000000
0.000000 0.516129 0.000000
0.000000 0.516129 0.129032
0.000000 0.516129 0.258065
0.000000 0.645161 0.451613
0.000000 0.774194 0.645161
0.000000 0.903226 0.838710
0.387097 0.516129 0.000000
0.322581 0.516129 0.129032
0.193548 0.516129 0.129032
0.129032 0.516129 0.193548
0.129032 0.516129 0.322581
0.129032 0.645161 0.516129
0.129032 0.774194 0.709677
0.129032 0.903226 0.903226
0.516129 0.516129 0.000000
0.451613 0.516129 0.129032
0.387097 0.516129 0.258065
0.258065 0.516129 0.258065
0.258065 0.516129 0.387097
0.258065 0.645161 0.580645
0.258065 0.774194 0.774194
0.258065 0.838710 0.903226
0.516129 0.387097 0.000000
0.516129 0.451613 0.129032
0.516129 0.516129 0.258065
0.451613 0.516129 0.387097
0.387097 0.516129 0.451613
0.387097 0.645161 0.645161
0.387097 0.709677 0.774194
0.387097 0.774194 0.903226
0.516129 0.258065 0.000000
0.516129 0.322581 0.129032
0.516129 0.387097 0.258065
0.516129 0.451613 0.387097
0.516129 0.516129 0.516129
0.516129 0.580645 0.645161
0.516129 0.645161 0.774194
0.516129 0.709677 0.903226
0.645161 0.193548 0.000000
0.645161 0.258065 0.129032
0.645161 0.322581 0.258065
0.645161 0.387097 0.387097
0.645161 0.516129 0.580645
0.580645 0.516129 0.645161
0.516129 0.516129 0.774194
0.516129 0.580645 0.903226
0.774194 0.129032 0.000000
0.774194 0.193548 0.129032
0.774194 0.258065 0.258065
0.774194 0.387097 0.451613
0.774194 0.516129 0.645161
0.774194 0.516129 0.774194
0.645161 0.516129 0.774194
0.580645 0.516129 0.903226
0.903226 0.064516 0.000000
0.903226 0.129032 0.129032
0.903226 0.258065 0.322581
0.903226 0.387097 0.516129
0.903226 0.516129 0.709677
0.903226 0.516129 0.838710
0.838710 0.516129 0.903226
0.709677 0.516129 0.903226
0.322581 0.645161 0.000000
0.193548 0.645161 0.000000
0.064516 0.645161 0.000000
0.000000 0.645161 0.064516
0.000000 0.645161 0.193548
0.000000 0.645161 0.322581
0.000000 0.774194 0.516129
0.000000 0.903226 0.709677
0.451613 0.645161 0.000000
0.387097 0.645161 0.129032
0.258065 0.645161 0.129032
0.129032 0.645161 0.129032
0.129032 0.645161 0.258065
0.129032 0.645161 0.387097
0.129032 0.774194 0.580645
0.129032 0.903226 0.774194
0.580645 0.645161 0.000000
0.516129 0.645161 0.129032
0.451613 0.645161 0.258065
0.322581 0.645161 0.258065
0.258065 0.645161 0.322581
0.258065 0.645161 0.451613
0.258065 0.774194 0.645161
0.258065 0.903226 0.838710
0.645161 0.580645 0.000000
0.645161 0.645161 0.129032
0.580645 0.645161 0.258065
0.516129 0.645161 0.387097
0.387097 0.645161 0.387097
0.387097 0.645161 0.516129
0.387097 0.774194 0.709677
0.387097 0.903226 0.903226
0.645161 0.451613 0.000000
0.645161 0.516129 0.129032
0.645161 0.580645 0.258065
0.645161 0.645161 0.387097
0.580645 0.645161 0.516129
0.516129 0.645161 0.580645
0.516129 0.774194 0.774194
0.516129 0.838710 0.903226
0.645161 0.322581 0.000000
0.645161 0.387097 0.129032
0.645161 0.451613 0.258065
0.645161 0.516129 0.387097
0.645161 0.580645 0.516129
0.645161 0.645161 0.645161
0.645161 0.709677 0.774194
0.645161 0.774194 0.903226
0.774194 0.258065 0.000000
0.774194 0.322581 0.129032
0.774194 0.387097 0.258065
0.774194 0.451613 0.387097
0.774194 0.516129 0.516129
0.774194 0.645161 0.709677
0.709677 0.645161 0.774194
0.645161 0.645161 0.903226
0.903226 0.193548 0.000000
0.903226 0.258065 0.129032
0.903226 0.322581 0.258065
0.903226 0.387097 0.387097
0.903226 0.516129 0.580645
0.903226 0.645161 0.774194
0.903226 0.645161 0.903226
0.774194 0.645161 0.903226
0.387097 0.774194 0.000000
0.258065 0.774194 0.000000
0.129032 0.774194 0.000000
0.000000 0.774194 0.000000
0.000000 0.774194 0.129032
0.000000 0.774194 0.258065
0.000000 0.774194 0.387097
0.000000 0.903226 0.580645
0.516129 0.774194 0.000000
0.451613 0.774194 0.129032
0.322581 0.774194 0.129032
0.193548 0.774194 0.129032
0.129032 0.774194 0.193548
0.129032 0.774194 0.322581
0.129032 0.774194 0.451613
0.129032 0.903226 0.645161
0.645161 0.774194 0.000000
0.580645 0.774194 0.129032
0.516129 0.774194 0.258065
0.387097 0.774194 0.258065
0.258065 0.774194 0.258065
0.258065 0.774194 0.387097
0.258065 0.774194 0.516129
0.258065 0.903226 0.709677
0.774194 0.774194 0.000000
0.709677 0.774194 0.129032
0.645161 0.774194 0.258065
0.580645 0.774194 0.387097
0.451613 0.774194 0.387097
0.387097 0.774194 0.451613
0.387097 0.774194 0.580645
0.387097 0.903226 0.774194
0.774194 0.645161 0.000000
0.774194 0.709677 0.129032
0.774194 0.774194 0.258065
0.709677 0.774194 0.387097
0.645161 0.774194 0.516129
0.516129 0.774194 0.516129
0.516129 0.774194 0.645161
0.516129 0.903226 0.838710
0.774194 0.516129 0.000000
0.774194 0.580645 0.129032
0.774194 0.645161 0.258065
0.774194 0.709677 0.387097
0.774194 0.774194 0.516129
0.709677 0.774194 0.645161
0.645161 0.774194 0.709677
0.645161 0.903226 0.903226
0.774194 0.387097 0.000000
0.774194 0.451613 0.129032
0.774194 0.516129 0.258065
0.774194 0.580645 0.387097
0.774194 0.645161 0.516129
0.774194 0.709677 0.645161
0.774194 0.774194 0.774194
0.774194 0.838710 0.903226
0.903226 0.322581 0.000000
0.903226 0.387097 0.129032
0.903226 0.451613 0.258065
0.903226 0.516129 0.387097
0.903226 0.580645 0.516129
0.903226 0.645161 0.645161
0.903226 0.774194 0.838710
0.838710 0.774194 0.903226
0.451613 0.903226 0.000000
0.322581 0.903226 0.000000
0.193548 0.903226 0.000000
0.064516 0.903226 0.000000
0.000000 0.903226 0.064516
0.000000 0.903226 0.193548
0.000000 0.903226 0.322581
0.000000 0.903226 0.451613
0.580645 0.903226 0.000000
0.516129 0.903226 0.129032
0.387097 0.903226 0.129032
0.258065 0.903226 0.129032
0.129032 0.903226 0.129032
0.129032 0.903226 0.258065
0.129032 0.903226 0.387097
0.129032 0.903226 0.516129
0.709677 0.903226 0.000000
0.645161 0.903226 0.129032
0.580645 0.903226 0.258065
0.451613 0.903226 0.258065
0.322581 0.903226 0.258065
0.258065 0.903226 0.322581
0.258065 0.903226 0.451613
0.258065 0.903226 0.580645
0.838710 0.903226 0.000000
0.774194 0.903226 0.129032
0.709677 0.903226 0.258065
0.645161 0.903226 0.387097
0.516129 0.903226 0.387097
0.387097 0.903226 0.387097
0.387097 0.903226 0.516129
0.387097 0.903226 0.645161
0.903226 0.838710 0.000000
0.903226 0.903226 0.129032
0.838710 0.903226 0.258065
0.774194 0.903226 0.387097
0.709677 0.903226 0.516129
0.580645 0.903226 0.516129
0.516129 0.903226 0.580645
0.516129 0.903226 0.709677
0.903226 0.709677 0.000000
0.903226 0.774194 0.129032
0.903226 0.838710 0.258065
0.903226 0.903226 0.387097
0.838710 0.903226 0.516129
0.774194 0.903226 0.645161
0.645161 0.903226 0.645161
0.645161 0.903226 0.774194
0.903226 0.580645 0.000000
0.903226 0.645161 0.129032
0.903226 0.709677 0.258065
0.903226 0.774194 0.387097
0.903226 0.838710 0.516129
0.903226 0.903226 0.645161
0.838710 0.903226 0.774194
0.774194 0.903226 0.838710
0.903226 0.451613 0.000000
0.903226 0.516129 0.129032
0.903226 0.580645 0.258065
0.903226 0.645161 0.387097
0.903226 0.709677 0.516129
0.903226 0.774194 0.645161
0.903226 0.838710 0.774194
0.903226 0.903226 0.903226
