src/luts/Sven.CUBE
#Created by Online LUT generator
TITLE ""
#LUT size
LUT_3D_SIZE 32
#LUT data points
0.000000 0.000000 0.000000
0.000000 0.016129 0.032258
0.000000 0.032258 0.064516
0.000000 0.048387 0.096774
0.000000 0.064516 0.129032
0.000000 0.080645 0.161290
0.000000 0.096774 0.193548
0.000000 0.112903 0.225806
0.000000 0.129032 0.258065
0.000000 0.145161 0.290323
0.000000 0.161290 0.322581
0.000000 0.177419 0.354839
0.000000 0.193548 0.387097
0.000000 0.209677 0.419355
0.000000 0.225806 0.451613
0.000000 0.241935 0.483871
0.000000 0.258065 0.516129
0.000000 0.274194 0.548387
0.000000 0.290323 0.580645
0.000000 0.306452 0.612903
0.000000 0.322581 0.645161
0.000000 0.338710 0.677419
0.000000 0.354839 0.709677
0.000000 0.370968 0.741935
0.000000 0.387097 0.774194
0.000000 0.403226 0.806452
0.000000 0.419355 0.838710
0.000000 0.435484 0.870968
0.000000 0.451613 0.903226
0.000000 0.467742 0.935484
0.000000 0.483871 0.967742
0.000000 0.500000 1.000000
0.032258 0.000000 0.016129
0.016129 0.000000 0.032258
0.000000 0.000000 0.064516
0.000000 0.016129 0.096774
0.000000 0.032258 0.129032
0.000000 0.048387 0.161290
0.000000 0.064516 0.193548
0.000000 0.080645 0.225806
0.000000 0.096774 0.258065
0.000000 0.112903 0.290323
0.000000 0.129032 0.322581
0.000000 0.145161 0.354839
0.000000 0.161290 0.387097
0.000000 0.177419 0.419355
0.000000 0.193548 0.451613
0.000000 0.209677 0.483871
0.000000 0.225806 0.516129
0.000000 0.241935 0.548387
0.000000 0.258065 0.580645
0.000000 0.274194 0.612903
0.000000 0.290323 0.645161
0.000000 0.306452 0.677419
0.000000 0.322581 0.709677
0.000000 0.338710 0.741935
0.000000 0.354839 0.774194
0.000000 0.370968 0.806452
0.000000 0.387097 0.838710
0.000000 0.403226 0.870968
0.000000 0.419355 0.903226
0.000000 0.435484 0.935484
0.000000 0.451613 0.967742
0.000000 0.467742 1.000000
0.064516 0.000000 0.032258
0.064516 0.000000 0.064516
0.032258 0.000000 0.064516
0.016129 0.000000 0.096774
0.000000 0.000000 0.129032
0.000000 0.016129 0.161290
0.000000 0.032258 0.193548
0.000000 0.048387 0.225806
0.000000 0.064516 0.258065
0.000000 0.080645 0.290323
0.000000 0.096774 0.322581
0.000000 0.112903 0.354839
0.000000 0.129032 0.387097
0.000000 0.145161 0.419355
0.000000 0.161290 0.451613
0.000000 0.177419 0.483871
0.000000 0.193548 0.516129
0.000000 0.209677 0.548387
0.000000 0.225806 0.580645
0.000000 0.241935 0.612903
0.000000 0.258065 0.645161
0.000000 0.274194 0.677419
0.000000 0.290323 0.709677
0.000000 0.306452 0.741935
0.000000 0.322581 0.774194
0.000000 0.338710 0.806452
0.000000 0.354839 0.838710
0.000000 0.370968 0.870968
0.000000 0.387097 0.903226
0.000000 0.403226 0.935484
0.000000 0.419355 0.967742
0.000000 0.435484 1.000000
0.096774 0.000000 0.048387
0.096774 0.000000 0.080645
0.080645 0.000000 0.096774
0.048387 0.000000 0.096774
0.032258 0.000000 0.129032
0.016129 0.000000 0.161290
0.000000 0.000000 0.193548
0.000000 0.016129 0.225806
0.000000 0.032258 0.258065
0.000000 0.048387 0.290323
0.000000 0.064516 0.322581
0.000000 0.080645 0.354839
0.000000 0.096774 0.387097
0.000000 0.112903 0.419355
0.000000 0.129032 0.451613
0.000000 0.145161 0.483871
0.000000 0.161290 0.516129
0.000000 0.177419 0.548387
0.000000 0.193548 0.580645
0.000000 0.209677 0.612903
0.000000 0.225806 0.645161
0.000000 0.241935 0.677419
0.000000 0.258065 0.709677
0.000000 0.274194 0.741935
0.000000 0.290323 0.774194
0.000000 0.306452 0.806452
0.000000 0.322581 0.838710
0.000000 0.338710 0.870968
0.000000 0.354839 0.903226
0.000000 0.370968 0.935484
0.000000 0.387097 0.967742
0.000000 0.403226 1.000000
0.129032 0.000000 0.064516
0.129032 0.000000 0.096774
0.129032 0.000000 0.129032
0.096774 0.000000 0.129032
0.064516 0.000000 0.129032
0.048387 0.000000 0.161290
0.032258 0.000000 0.193548
0.016129 0.000000 0.225806
0.000000 0.000000 0.258065
0.000000 0.016129 0.290323
0.000000 0.032258 0.322581
0.000000 0.048387 0.354839
0.000000 0.064516 0.387097
0.000000 0.080645 0.419355
0.000000 0.096774 0.451613
0.000000 0.112903 0.483871
0.000000 0.129032 0.516129
0.000000 0.145161 0.548387
0.000000 0.161290 0.580645
0.000000 0.177419 0.612903
0.000000 0.193548 0.645161
0.000000 0.209677 0.677419
0.000000 0.225806 0.709677
0.000000 0.241935 0.741935
0.000000 0.258065 0.774194
0.000000 0.274194 0.806452
0.000000 0.290323 0.838710
0.000000 0.306452 0.870968
0.000000 0.322581 0.903226
0.000000 0.338710 0.935484
0.000000 0.354839 0.967742
0.000000 0.370968 1.000000
0.161290 0.000000 0.080645
0.161290 0.000000 0.112903
0.161290 0.000000 0.145161
0.145161 0.000000 0.161290
0.112903 0.000000 0.161290
0.080645 0.000000 0.161290
0.064516 0.000000 0.193548
0.048387 0.000000 0.225806
0.032258 0.000000 0.258065
0.016129 0.000000 0.290323
0.000000 0.000000 0.322581
0.000000 0.016129 0.354839
0.000000 0.032258 0.387097
0.000000 0.048387 0.419355
0.000000 0.064516 0.451613
0.000000 0.080645 0.483871
0.000000 0.096774 0.516129
0.000000 0.112903 0.548387
0.000000 0.129032 0.580645
0.000000 0.145161 0.612903
0.000000 0.161290 0.645161
0.000000 0.177419 0.677419
0.000000 0.193548 0.709677
0.000000 0.209677 0.741935
0.000000 0.225806 0.774194
0.000000 0.241935 0.806452
0.000000 0.258065 0.838710
0.000000 0.274194 0.870968
0.000000 0.290323 0.903226
0.000000 0.306452 0.935484
0.000000 0.322581 0.967742
0.000000 0.338710 1.000000
0.193548 0.000000 0.096774
0.193548 0.000000 0.129032
0.193548 0.000000 0.161290
0.193548 0.000000 0.193548
0.161290 0.000000 0.193548
0.129032 0.000000 0.193548
0.096774 0.000000 0.193548
0.080645 0.000000 0.225806
0.064516 0.000000 0.258065
0.048387 0.000000 0.290323
0.032258 0.000000 0.322581
0.016129 0.000000 0.354839
0.000000 0.000000 0.387097
0.000000 0.016129 0.419355
0.000000 0.032258 0.451613
0.000000 0.048387 0.483871
0.000000 0.064516 0.516129
0.000000 0.080645 0.548387
0.000000 0.096774 0.580645
0.000000 0.112903 0.612903
0.000000 0.129032 0.645161
0.000000 0.145161 0.677419
0.000000 0.161290 0.709677
0.000000 0.177419 0.741935
0.000000 0.193548 0.774194
0.000000 0.209677 0.806452
0.000000 0.225806 0.838710
0.000000 0.241935 0.870968
0.000000 0.258065 0.903226
0.000000 0.274194 0.935484
0.000000 0.290323 0.967742
0.000000 0.306452 1.000000
0.225806 0.000000 0.112903
0.225806 0.000000 0.145161
0.225806 0.000000 0.177419
0.225806 0.000000 0.209677
0.209677 0.000000 0.225806
0.177419 0.000000 0.225806
0.145161 0.000000 0.225806
0.112903 0.000000 0.225806
0.096774 0.000000 0.258065
0.080645 0.000000 0.290323
0.064516 0.000000 0.322581
0.048387 0.000000 0.354839
0.032258 0.000000 0.387097
0.016129 0.000000 0.419355
0.000000 0.000000 0.451613
0.000000 0.016129 0.483871
0.000000 0.032258 0.516129
0.000000 0.048387 0.548387
0.000000 0.064516 0.580645
0.000000 0.080645 0.612903
0.000000 0.096774 0.645161
0.000000 0.112903 0.677419
0.000000 0.129032 0.709677
0.000000 0.145161 0.741935
0.000000 0.161290 0.774194
0.000000 0.177419 0.806452
0.000000 0.193548 0.838710
0.000000 0.209677 0.870968
0.000000 0.225806 0.903226
0.000000 0.241935 0.935484
0.000000 0.258065 0.967742
0.000000 0.274194 1.000000
0.258065 0.000000 0.129032
0.258065 0.000000 0.161290
0.258065 0.000000 0.193548
0.258065 0.000000 0.225806
0.258065 0.000000 0.258065
0.225806 0.000000 0.258065
0.193548 0.000000 0.258065
0.161290 0.000000 0.258065
0.129032 0.000000 0.258065
0.112903 0.000000 0.290323
0.096774 0.000000 0.322581
0.080645 0.000000 0.354839
0.064516 0.000000 0.387097
0.048387 0.000000 0.419355
0.032258 0.000000 0.451613
0.016129 0.000000 0.483871
0.000000 0.000000 0.516129
0.000000 0.016129 0.548387
0.000000 0.032258 0.580645
0.000000 0.048387 0.612903
0.000000 0.064516 0.645161
0.000000 0.080645 0.677419
0.000000 0.096774 0.709677
0.000000 0.112903 0.741935
0.000000 0.129032 0.774194
0.000000 0.145161 0.806452
0.000000 0.161290 0.838710
0.000000 0.177419 0.870968
0.000000 0.193548 0.903226
0.000000 0.209677 0.935484
0.000000 0.225806 0.967742
0.000000 0.241935 1.000000
0.290323 0.000000 0.145161
0.290323 0.000000 0.177419
0.290323 0.000000 0.209677
0.290323 0.000000 0.241935
0.290323 0.000000 0.274194
0.274194 0.000000 0.290323
0.241935 0.000000 0.290323
0.209677 0.000000 0.290323
0.177419 0.000000 0.290323
0.145161 0.000000 0.290323
0.129032 0.000000 0.322581
0.112903 0.000000 0.354839
0.096774 0.000000 0.387097
0.080645 0.000000 0.419355
0.064516 0.000000 0.451613
0.048387 0.000000 0.483871
0.032258 0.000000 0.516129
0.016129 0.000000 0.548387
0.000000 0.000000 0.580645
0.000000 0.016129 0.612903
0.000000 0.032258 0.645161
0.000000 0.048387 0.677419
0.000000 0.064516 0.709677
0.000000 0.080645 0.741935
0.000000 0.096774 0.774194
0.000000 0.112903 0.806452
0.000000 0.129032 0.838710
0.000000 0.145161 0.870968
0.000000 0.161290 0.903226
0.000000 0.177419 0.935484
0.000000 0.193548 0.967742
0.000000 0.209677 1.000000
0.322581 0.000000 0.161290
0.322581 0.000000 0.193548
0.322581 0.000000 0.225806
0.322581 0.000000 0.258065
0.322581 0.000000 0.290323
0.322581 0.000000 0.322581
0.290323 0.000000 0.322581
0.258065 0.000000 0.322581
0.225806 0.000000 0.322581
0.193548 0.000000 0.322581
0.161290 0.000000 0.322581
0.145161 0.000000 0.354839
0.129032 0.000000 0.387097
0.112903 0.000000 0.419355
0.096774 0.000000 0.451613
0.080645 0.000000 0.483871
0.064516 0.000000 0.516129
0.048387 0.000000 0.548387
0.032258 0.000000 0.580645
0.016129 0.000000 0.612903
0.000000 0.000000 0.645161
0.000000 0.016129 0.677419
0.000000 0.032258 0.709677
0.000000 0.048387 0.741935
0.000000 0.064516 0.774194
0.000000 0.080645 0.806452
0.000000 0.096774 0.838710
0.000000 0.112903 0.870968
0.000000 0.129032 0.903226
0.000000 0.145161 0.935484
0.000000 0.161290 0.967742
0.000000 0.177419 1.000000
0.354839 0.000000 0.177419
0.354839 0.000000 0.209677
0.354839 0.000000 0.241935
0.354839 0.000000 0.274194
0.354839 0.000000 0.306452
0.354839 0.000000 0.338710
0.338710 0.000000 0.354839
0.306452 0.000000 0.354839
0.274194 0.000000 0.354839
0.241935 0.000000 0.354839
0.209677 0.000000 0.354839
0.177419 0.000000 0.354839
0.161290 0.000000 0.387097
0.145161 0.000000 0.419355
0.129032 0.000000 0.451613
0.112903 0.000000 0.483871
0.096774 0.000000 0.516129
0.080645 0.000000 0.548387
0.064516 0.000000 0.580645
0.048387 0.000000 0.612903
0.032258 0.000000 0.645161
0.016129 0.000000 0.677419
0.000000 0.000000 0.709677
0.000000 0.016129 0.741935
0.000000 0.032258 0.774194
0.000000 0.048387 0.806452
0.000000 0.064516 0.838710
0.000000 0.080645 0.870968
0.000000 0.096774 0.903226
0.000000 0.112903 0.935484
0.000000 0.129032 0.967742
0.000000 0.145161 1.000000
0.387097 0.000000 0.193548
0.387097 0.000000 0.225806
0.387097 0.000000 0.258065
0.387097 0.000000 0.290323
0.387097 0.000000 0.322581
0.387097 0.000000 0.354839
0.387097 0.000000 0.387097
0.354839 0.000000 0.387097
0.322581 0.000000 0.387097
0.290323 0.000000 0.387097
0.258065 0.000000 0.387097
0.225806 0.000000 0.387097
0.193548 0.000000 0.387097
0.177419 0.000000 0.419355
0.161290 0.000000 0.451613
0.145161 0.000000 0.483871
0.129032 0.000000 0.516129
0.112903 0.000000 0.548387
0.096774 0.000000 0.580645
0.080645 0.000000 0.612903
0.064516 0.000000 0.645161
0.048387 0.000000 0.677419
0.032258 0.000000 0.709677
0.016129 0.000000 0.741935
0.000000 0.000000 0.774194
0.000000 0.016129 0.806452
0.000000 0.032258 0.838710
0.000000 0.048387 0.870968
0.000000 0.064516 0.903226
0.000000 0.080645 0.935484
0.000000 0.096774 0.967742
0.000000 0.112903 1.000000
0.419355 0.000000 0.209677
0.419355 0.000000 0.241935
0.419355 0.000000 0.274194
0.419355 0.000000 0.306452
0.419355 0.000000 0.338710
0.419355 0.000000 0.370968
0.419355 0.000000 0.403226
0.403226 0.000000 0.419355
0.370968 0.000000 0.419355
0.338710 0.000000 0.419355
0.306452 0.000000 0.419355
0.274194 0.000000 0.419355
0.241935 0.000000 0.419355
0.209677 0.000000 0.419355
0.193548 0.000000 0.451613
0.177419 0.000000 0.483871
0.161290 0.000000 0.516129
0.145161 0.000000 0.548387
0.129032 0.000000 0.580645
0.112903 0.000000 0.612903
0.096774 0.000000 0.645161
0.080645 0.000000 0.677419
0.064516 0.000000 0.709677
0.048387 0.000000 0.741935
0.032258 0.000000 0.774194
0.016129 0.000000 0.806452
0.000000 0.000000 0.838710
0.000000 0.016129 0.870968
0.000000 0.032258 0.903226
0.000000 0.048387 0.935484
0.000000 0.064516 0.967742
0.000000 0.080645 1.000000
0.451613 0.000000 0.225806
0.451613 0.000000 0.258065
0.451613 0.000000 0.290323
0.451613 0.000000 0.322581
0.451613 0.000000 0.354839
0.451613 0.000000 0.387097
0.451613 0.000000 0.419355
0.451613 0.000000 0.451613
0.419355 0.000000 0.451613
0.387097 0.000000 0.451613
0.354839 0.000000 0.451613
0.322581 0.000000 0.451613
0.290323 0.000000 0.451613
0.258065 0.000000 0.451613
0.225806 0.000000 0.451613
0.209677 0.000000 0.483871
0.193548 0.000000 0.516129
0.177419 0.000000 0.548387
0.161290 0.000000 0.580645
0.145161 0.000000 0.612903
0.129032 0.000000 0.645161
0.112903 0.000000 0.677419
0.096774 0.000000 0.709677
0.080645 0.000000 0.741935
0.064516 0.000000 0.774194
0.048387 0.000000 0.806452
0.032258 0.000000 0.838710
0.016129 0.000000 0.870968
0.000000 0.000000 0.903226
0.000000 0.016129 0.935484
0.000000 0.032258 0.967742
0.000000 0.048387 1.000000
0.483871 0.000000 0.241935
0.483871 0.000000 0.274194
0.483871 0.000000 0.306452
0.483871 0.000000 0.338710
0.483871 0.000000 0.370968
0.483871 0.000000 0.403226
0.483871 0.000000 0.435484
0.483871 0.000000 0.467742
0.467742 0.000000 0.483871
0.435484 0.000000 0.483871
0.403226 0.000000 0.483871
0.370968 0.000000 0.483871
0.338710 0.000000 0.483871
0.306452 0.000000 0.483871
0.274194 0.000000 0.483871
0.241935 0.000000 0.483871
0.225806 0.000000 0.516129
0.209677 0.000000 0.548387
0.193548 0.000000 0.580645
0.177419 0.000000 0.612903
0.161290 0.000000 0.645161
0.145161 0.000000 0.677419
0.129032 0.000000 0.709677
0.112903 0.000000 0.741935
0.096774 0.000000 0.774194
0.080645 0.000000 0.806452
0.064516 0.000000 0.838710
0.048387 0.000000 0.870968
0.032258 0.000000 0.903226
0.016129 0.000000 0.935484
0.000000 0.000000 0.967742
0.000000 0.016129 1.000000
0.516129 0.000000 0.258065
0.516129 0.000000 0.290323
0.516129 0.000000 0.322581
0.516129 0.000000 0.354839
0.516129 0.000000 0.387097
0.516129 0.000000 0.419355
0.516129 0.000000 0.451613
0.516129 0.000000 0.483871
0.516129 0.000000 0.516129
0.483871 0.000000 0.516129
0.451613 0.000000 0.516129
0.419355 0.000000 0.516129
0.387097 0.000000 0.516129
0.354839 0.000000 0.516129
0.322581 0.000000 0.516129
0.290323 0.000000 0.516129
0.258065 0.000000 0.516129
0.241935 0.000000 0.548387
0.225806 0.000000 0.580645
0.209677 0.000000 0.612903
0.193548 0.000000 0.645161
0.177419 0.000000 0.677419
0.161290 0.000000 0.709677
0.145161 0.000000 0.741935
0.129032 0.000000 0.774194
0.112903 0.000000 0.806452
0.096774 0.000000 0.838710
0.080645 0.000000 0.870968
0.064516 0.000000 0.903226
0.048387 0.000000 0.935484
0.032258 0.000000 0.967742
0.016129 0.000000 1.000000
0.548387 0.000000 0.274194
0.548387 0.000000 0.306452
0.548387 0.000000 0.338710
0.548387 0.000000 0.370968
0.548387 0.000000 0.403226
0.548387 0.000000 0.435484
0.548387 0.000000 0.467742
0.548387 0.000000 0.500000
0.548387 0.000000 0.532258
0.532258 0.000000 0.548387
0.500000 0.000000 0.548387
0.467742 0.000000 0.548387
0.435484 0.000000 0.548387
0.403226 0.000000 0.548387
0.370968 0.000000 0.548387
0.338710 0.000000 0.548387
0.306452 0.000000 0.548387
0.274194 0.000000 0.548387
0.258065 0.000000 0.580645
0.241935 0.000000 0.612903
0.225806 0.000000 0.645161
0.209677 0.000000 0.677419
0.193548 0.000000 0.709677
0.177419 0.000000 0.741935
0.161290 0.000000 0.774194
0.145161 0.000000 0.806452
0.129032 0.000000 0.838710
0.112903 0.000000 0.870968
0.096774 0.000000 0.903226
0.080645 0.000000 0.935484
0.064516 0.000000 0.967742
0.048387 0.000000 1.000000
0.580645 0.000000 0.290323
0.580645 0.000000 0.322581
0.580645 0.000000 0.354839
0.580645 0.000000 0.387097
0.580645 0.000000 0.419355
0.580645 0.000000 0.451613
0.580645 0.000000 0.483871
0.580645 0.000000 0.516129
0.580645 0.000000 0.548387
0.580645 0.000000 0.580645
0.548387 0.000000 0.580645
0.516129 0.000000 0.580645
0.483871 0.000000 0.580645
0.451613 0.000000 0.580645
0.419355 0.000000 0.580645
0.387097 0.000000 0.580645
0.354839 0.000000 0.580645
0.322581 0.000000 0.580645
0.290323 0.000000 0.580645
0.274194 0.000000 0.612903
0.258065 0.000000 0.645161
0.241935 0.000000 0.677419
0.225806 0.000000 0.709677
0.209677 0.000000 0.741935
0.193548 0.000000 0.774194
0.177419 0.000000 0.806452
0.161290 0.000000 0.838710
0.145161 0.000000 0.870968
0.129032 0.000000 0.903226
0.112903 0.000000 0.935484
0.096774 0.000000 0.967742
0.080645 0.000000 1.000000
0.612903 0.000000 0.306452
0.612903 0.000000 0.338710
0.612903 0.000000 0.370968
0.612903 0.000000 0.403226
0.612903 0.000000 0.435484
0.612903 0.000000 0.467742
0.612903 0.000000 0.500000
0.612903 0.000000 0.532258
0.612903 0.000000 0.564516
0.612903 0.000000 0.596774
0.596774 0.000000 0.612903
0.564516 0.000000 0.612903
0.532258 0.000000 0.612903
0.500000 0.000000 0.612903
0.467742 0.000000 0.612903
0.435484 0.000000 0.612903
0.403226 0.000000 0.612903
0.370968 0.000000 0.612903
0.338710 0.000000 0.612903
0.306452 0.000000 0.612903
0.290323 0.000000 0.645161
0.274194 0.000000 0.677419
0.258065 0.000000 0.709677
0.241935 0.000000 0.741935
0.225806 0.000000 0.774194
0.209677 0.000000 0.806452
0.193548 0.000000 0.838710
0.177419 0.000000 0.870968
0.161290 0.000000 0.903226
0.145161 0.000000 0.935484
0.129032 0.000000 0.967742
0.112903 0.000000 1.000000
0.645161 0.000000 0.322581
0.645161 0.000000 0.354839
0.645161 0.000000 0.387097
0.645161 0.000000 0.419355
0.645161 0.000000 0.451613
0.645161 0.000000 0.483871
0.645161 0.000000 0.516129
0.645161 0.000000 0.548387
0.645161 0.000000 0.580645
0.645161 0.000000 0.612903
0.645161 0.000000 0.645161
0.612903 0.000000 0.645161
0.580645 0.000000 0.645161
0.548387 0.000000 0.645161
0.516129 0.000000 0.645161
0.483871 0.000000 0.645161
0.451613 0.000000 0.645161
0.419355 0.000000 0.645161
0.387097 0.000000 0.645161
0.354839 0.000000 0.645161
0.322581 0.000000 0.645161
0.306452 0.000000 0.677419
0.290323 0.000000 0.709677
0.274194 0.000000 0.741935
0.258065 0.000000 0.774194
0.241935 0.000000 0.806452
0.225806 0.000000 0.838710
0.209677 0.000000 0.870968
0.193548 0.000000 0.903226
0.177419 0.000000 0.935484
0.161290 0.000000 0.967742
0.145161 0.000000 1.000000
0.677419 0.000000 0.338710
0.677419 0.000000 0.370968
0.677419 0.000000 0.403226
0.677419 0.000000 0.435484
0.677419 0.000000 0.467742
0.677419 0.000000 0.500000
0.677419 0.000000 0.532258
0.677419 0.000000 0.564516
0.677419 0.000000 0.596774
0.677419 0.000000 0.629032
0.677419 0.000000 0.661290
0.661290 0.000000 0.677419
0.629032 0.000000 0.677419
0.596774 0.000000 0.677419
0.564516 0.000000 0.677419
0.532258 0.000000 0.677419
0.500000 0.000000 0.677419
0.467742 0.000000 0.677419
0.435484 0.000000 0.677419
0.403226 0.000000 0.677419
0.370968 0.000000 0.677419
0.338710 0.000000 0.677419
0.322581 0.000000 0.709677
0.306452 0.000000 0.741935
0.290323 0.000000 0.774194
0.274194 0.000000 0.806452
0.258065 0.000000 0.838710
0.241935 0.000000 0.870968
0.225806 0.000000 0.903226
0.209677 0.000000 0.935484
0.193548 0.000000 0.967742
0.177419 0.000000 1.000000
0.709677 0.000000 0.354839
0.709677 0.000000 0.387097
0.709677 0.000000 0.419355
0.709677 0.000000 0.451613
0.709677 0.000000 0.483871
0.709677 0.000000 0.516129
0.709677 0.000000 0.548387
0.709677 0.000000 0.580645
0.709677 0.000000 0.612903
0.709677 0.000000 0.645161
0.709677 0.000000 0.677419
0.709677 0.000000 0.709677
0.677419 0.000000 0.709677
0.645161 0.000000 0.709677
0.612903 0.000000 0.709677
0.580645 0.000000 0.709677
0.548387 0.000000 0.709677
0.516129 0.000000 0.709677
0.483871 0.000000 0.709677
0.451613 0.000000 0.709677
0.419355 0.000000 0.709677
0.387097 0.000000 0.709677
0.354839 0.000000 0.709677
0.338710 0.000000 0.741935
0.322581 0.000000 0.774194
0.306452 0.000000 0.806452
0.290323 0.000000 0.838710
0.274194 0.000000 0.870968
0.258065 0.000000 0.903226
0.241935 0.000000 0.935484
0.225806 0.000000 0.967742
0.209677 0.000000 1.000000
0.741935 0.000000 0.370968
0.741935 0.000000 0.403226
0.741935 0.000000 0.435484
0.741935 0.000000 0.467742
0.741935 0.000000 0.500000
0.741935 0.000000 0.532258
0.741935 0.000000 0.564516
0.741935 0.000000 0.596774
0.741935 0.000000 0.629032
0.741935 0.000000 0.661290
0.741935 0.000000 0.693548
0.741935 0.000000 0.725806
0.725806 0.000000 0.741935
0.693548 0.000000 0.741935
0.661290 0.000000 0.741935
0.629032 0.000000 0.741935
0.596774 0.000000 0.741935
0.564516 0.000000 0.741935
0.532258 0.000000 0.741935
0.500000 0.000000 0.741935
0.467742 0.000000 0.741935
0.435484 0.000000 0.741935
0.403226 0.000000 0.741935
0.370968 0.000000 0.741935
0.354839 0.000000 0.774194
0.338710 0.000000 0.806452
0.322581 0.000000 0.838710
0.306452 0.000000 0.870968
0.290323 0.000000 0.903226
0.274194 0.000000 0.935484
0.258065 0.000000 0.967742
0.241935 0.000000 1.000000
0.774194 0.000000 0.387097
0.774194 0.000000 0.419355
0.774194 0.000000 0.451613
0.774194 0.000000 0.483871
0.774194 0.000000 0.516129
0.774194 0.000000 0.548387
0.774194 0.000000 0.580645
0.774194 0.000000 0.612903
0.774194 0.000000 0.645161
0.774194 0.000000 0.677419
0.774194 0.000000 0.709677
0.774194 0.000000 0.741935
0.774194 0.000000 0.774194
0.741935 0.000000 0.774194
0.709677 0.000000 0.774194
0.677419 0.000000 0.774194
0.645161 0.000000 0.774194
0.612903 0.000000 0.774194
0.580645 0.000000 0.774194
0.548387 0.000000 0.774194
0.516129 0.000000 0.774194
0.483871 0.000000 0.774194
0.451613 0.000000 0.774194
0.419355 0.000000 0.774194
0.387097 0.000000 0.774194
0.370968 0.000000 0.806452
0.354839 0.000000 0.838710
0.338710 0.000000 0.870968
0.322581 0.000000 0.903226
0.306452 0.000000 0.935484
0.290323 0.000000 0.967742
0.274194 0.000000 1.000000
0.806452 0.000000 0.403226
0.806452 0.000000 0.435484
0.806452 0.000000 0.467742
0.806452 0.000000 0.500000
0.806452 0.000000 0.532258
0.806452 0.000000 0.564516
0.806452 0.000000 0.596774
0.806452 0.000000 0.629032
0.806452 0.000000 0.661290
0.806452 0.000000 0.693548
0.806452 0.000000 0.725806
0.806452 0.000000 0.758065
0.806452 0.000000 0.790323
0.790323 0.000000 0.806452
0.758065 0.000000 0.806452
0.725806 0.000000 0.806452
0.693548 0.000000 0.806452
0.661290 0.000000 0.806452
0.629032 0.000000 0.806452
0.596774 0.000000 0.806452
0.564516 0.000000 0.806452
0.532258 0.000000 0.806452
0.500000 0.000000 0.806452
0.467742 0.000000 0.806452
0.435484 0.000000 0.806452
0.403226 0.000000 0.806452
0.387097 0.000000 0.838710
0.370968 0.000000 0.870968
0.354839 0.000000 0.903226
0.338710 0.000000 0.935484
0.322581 0.000000 0.967742
0.306452 0.000000 1.000000
0.838710 0.000000 0.419355
0.838710 0.000000 0.451613
0.838710 0.000000 0.483871
0.838710 0.000000 0.516129
0.838710 0.000000 0.548387
0.838710 0.000000 0.580645
0.838710 0.000000 0.612903
0.838710 0.000000 0.645161
0.838710 0.000000 0.677419
0.838710 0.000000 0.709677
0.838710 0.000000 0.741935
0.838710 0.000000 0.774194
0.838710 0.000000 0.806452
0.838710 0.000000 0.838710
0.806452 0.000000 0.838710
0.774194 0.000000 0.838710
0.741935 0.000000 0.838710
0.709677 0.000000 0.838710
0.677419 0.000000 0.838710
0.645161 0.000000 0.838710
0.612903 0.000000 0.838710
0.580645 0.000000 0.838710
0.548387 0.000000 0.838710
0.516129 0.000000 0.838710
0.483871 0.000000 0.838710
0.451613 0.000000 0.838710
0.419355 0.000000 0.838710
0.403226 0.000000 0.870968
0.387097 0.000000 0.903226
0.370968 0.000000 0.935484
0.354839 0.000000 0.967742
0.338710 0.000000 1.000000
0.870968 0.000000 0.435484
0.870968 0.000000 0.467742
0.870968 0.000000 0.500000
0.870968 0.000000 0.532258
0.870968 0.000000 0.564516
0.870968 0.000000 0.596774
0.870968 0.000000 0.629032
0.870968 0.000000 0.661290
0.870968 0.000000 0.693548
0.870968 0.000000 0.725806
0.870968 0.000000 0.758065
0.870968 0.000000 0.790323
0.870968 0.000000 0.822581
0.870968 0.000000 0.854839
0.854839 0.000000 0.870968
0.822581 0.000000 0.870968
0.790323 0.000000 0.870968
0.758065 0.000000 0.870968
0.725806 0.000000 0.870968
0.693548 0.000000 0.870968
0.661290 0.000000 0.870968
